images/twiter.svg

<svg width="32" height="32" viewBox="0 0 32 32" fill="#000" xmlns="http://www.w3.org/2000/svg">
	<circle cx="16" cy="16" r="16" fill="#E9E9E9"/>
	<path d="M9.10254 21.346C10.7432 21.4954 12.2109 21.0853 13.541 20.0892C13.3359 20.0423 13.1484 20.0423 12.9697 19.9984C11.9238 19.7494 11.2002 19.1195 10.7754 18.138C10.7549 18.0882 10.7021 18.0267 10.749 17.9769C10.7842 17.9388 10.8516 17.971 10.9014 17.9769C11.2705 18.015 11.6396 18.0033 12.0029 17.9183C12.0088 17.8538 11.9619 17.8597 11.9268 17.848C11.0273 17.6078 10.374 17.0716 9.95215 16.2425C9.75879 15.8617 9.65332 15.4632 9.6416 15.0355C9.63574 14.8685 9.64453 14.8656 9.7998 14.9388C10.1689 15.1146 10.5557 15.2142 10.998 15.2347C10.7959 15.0706 10.6143 14.9271 10.459 14.7542C9.9873 14.2298 9.72363 13.6175 9.66797 12.9115C9.62402 12.3372 9.74414 11.8011 9.99316 11.2855C10.0488 11.1712 10.0986 11.18 10.1689 11.265C10.6582 11.8626 11.2295 12.3695 11.8594 12.8089C12.3281 13.1371 12.8262 13.4095 13.3506 13.641C14.042 13.9427 14.7598 14.1449 15.5039 14.265C15.7383 14.3031 15.9785 14.3119 16.2158 14.3353C16.3359 14.347 16.3682 14.3119 16.3447 14.1888C16.2246 13.556 16.3066 12.9408 16.582 12.3636C17.0537 11.3792 17.8447 10.7816 18.9199 10.6234C19.875 10.4828 20.7334 10.7552 21.4453 11.4261C21.5537 11.5287 21.6504 11.555 21.7969 11.5169C22.3711 11.3704 22.9189 11.1624 23.4346 10.8695C23.4492 10.8607 23.4668 10.8578 23.5195 10.8372C23.2793 11.5433 22.8545 12.0648 22.2598 12.4632C22.3975 12.4896 22.8047 12.4163 23.0859 12.3285C23.3555 12.2435 23.625 12.1673 23.8828 12.0531C23.918 12.0912 23.8857 12.1117 23.8711 12.1322C23.5283 12.6156 23.1357 13.0521 22.667 13.4154C22.6025 13.4652 22.541 13.5208 22.4736 13.5677C22.4238 13.6029 22.4209 13.6468 22.4238 13.6966C22.4443 14.2298 22.4062 14.7601 22.3301 15.2845C22.251 15.8206 22.1162 16.3421 21.9375 16.8548C21.791 17.2738 21.6182 17.681 21.4131 18.0765C20.9062 19.0492 20.2471 19.9046 19.4238 20.6341C18.5479 21.4076 17.5518 21.9642 16.4385 22.3099C15.7441 22.5267 15.0322 22.6527 14.3027 22.6908C13.7402 22.7201 13.1807 22.7113 12.624 22.641C11.8271 22.5443 11.0596 22.3275 10.3213 22.0111C9.94336 21.8499 9.58594 21.6566 9.22852 21.4544C9.17871 21.4339 9.12891 21.4105 9.10254 21.346Z"/>
</svg>

<svg width="32" height="32" xmlns="http://www.w3.org/2000/svg"><circle cx="16" cy="16" r="16" fill="#E9E9E9"/><path d="M9.103 21.346c1.64.15 3.108-.26 4.438-1.257-.205-.047-.393-.047-.571-.09-1.046-.25-1.77-.88-2.195-1.861-.02-.05-.073-.111-.026-.161.035-.038.103-.006.152 0 .37.038.739.026 1.102-.059.006-.064-.041-.058-.076-.07-.9-.24-1.553-.776-1.975-1.605a2.795 2.795 0 01-.31-1.207c-.006-.168.003-.17.158-.097.369.176.756.275 1.198.296-.202-.164-.384-.308-.539-.48a3.038 3.038 0 01-.791-1.844 3.124 3.124 0 01.325-1.625c.056-.115.106-.106.176-.021a8.295 8.295 0 001.69 1.544 8.732 8.732 0 003.645 1.456c.234.038.475.047.712.07.12.012.152-.023.129-.146a2.902 2.902 0 01.237-1.825c.472-.985 1.263-1.582 2.338-1.74.955-.141 1.813.131 2.525.802.109.103.205.129.352.09a6.586 6.586 0 001.638-.646c.014-.01.032-.012.085-.033a3.097 3.097 0 01-1.26 1.626c.137.027.545-.047.826-.134.27-.086.539-.162.797-.276.035.038.003.059-.012.08-.343.483-.735.92-1.204 1.282-.065.05-.126.106-.193.153-.05.035-.053.079-.05.129a8.717 8.717 0 01-.094 1.588 8.556 8.556 0 01-.392 1.57c-.147.419-.32.826-.525 1.221a8.844 8.844 0 01-1.99 2.558 8.077 8.077 0 01-2.984 1.676 8.65 8.65 0 01-2.136.38 9.411 9.411 0 01-1.679-.049 8.398 8.398 0 01-2.303-.63 10.944 10.944 0 01-1.092-.557c-.05-.02-.1-.044-.126-.108z"/></svg>
